libs/ui/packages/crypto-icons/src/svg/WPR.svg

<svg width="24" height="24" viewBox="0 0 24 24" fill="none">
<path fill-rule="evenodd" clip-rule="evenodd" d="M2.63177 4.38407C3.22517 3.71082 3.89179 3.10583 4.61927 2.58032L7.95827 14.5188L9.43802 8.19032H12.243L13.722 14.5188L15.4748 8.19032H18.2865L18.3128 8.30282L21.3683 19.3383C20.8145 20.1046 20.1726 20.8031 19.4558 21.4196L16.878 12.1121L15.408 17.4206L15.3818 17.5331H12.2423L10.8405 12.3341L9.43802 17.5331H6.29852L6.27227 17.4206L2.63177 4.38407Z" fill="#FFE600"/>
</svg>

<svg width="24" height="24" viewBox="0 0 24 24" fill="none"><path fill="#ffe600" fill-rule="evenodd" d="M2.632 4.384A12 12 0 0 1 4.619 2.58L7.96 14.52l1.477-6.33h2.805l1.479 6.329 1.753-6.329h2.812l.026.113 3.055 11.035a12 12 0 0 1-1.912 2.082l-2.578-9.308-1.47 5.309-.026.112h-3.14l-1.402-5.199-1.402 5.2h-3.14l-.026-.113z" clip-rule="evenodd"/></svg>
